X:55
T:An Colam\'oir S\'ugach
M:C|
L:1/8
R:reel
K:Gmix
dc|:A2Gc AGFD|A2Gc Addc|(3ABc Gc AGFD|Adde fdcA:|
d2gg agge|dgge fdcA|d2gg agge|d2de fdcA|
d2gg agge|dgge Jf3g|afge fdeJc|dfec dcAG||

